src/assets/dollar2.svg

<svg width="70" height="70" viewBox="0 0 70 70" fill="none" xmlns="http://www.w3.org/2000/svg">
<path d="M35 67.5C52.5 67.5 65 61.31 65 47.53C65 32.555 57.5 22.57 42.5 15.08L48.4 7.49C48.7005 6.99214 48.8636 6.42352 48.8729 5.84208C48.8821 5.26063 48.737 4.68714 48.4524 4.18C48.1679 3.67287 47.754 3.25022 47.2529 2.9551C46.7518 2.65999 46.1815 2.50296 45.6 2.5H24.4C23.8197 2.50603 23.2513 2.66498 22.752 2.96081C22.2528 3.25664 21.8404 3.67889 21.5564 4.18497C21.2724 4.69106 21.1269 5.26308 21.1346 5.84334C21.1422 6.4236 21.3028 6.99158 21.6 7.49L27.5 15.13C12.5 22.67 5 32.655 5 47.63C5 61.31 17.5 67.5 35 67.5Z" stroke="#00AACB" stroke-width="4" stroke-linecap="round" stroke-linejoin="round"/>
<path d="M41.9141 34.03C41.5433 32.9713 40.8521 32.0544 39.9363 31.4066C39.0206 30.7588 37.9258 30.4122 36.8041 30.415H32.6141C31.4202 30.4126 30.2677 30.8521 29.3785 31.6486C28.4892 32.4452 27.9261 33.5426 27.7976 34.7296C27.6691 35.9165 27.9843 37.109 28.6825 38.0775C29.3806 39.0459 30.4124 39.7218 31.5791 39.975L37.9641 41.375C39.2652 41.6652 40.4136 42.4246 41.1901 43.5082C41.9665 44.5917 42.3163 45.9234 42.1728 47.2487C42.0293 48.5739 41.4024 49.7998 40.412 50.692C39.4216 51.5842 38.1371 52.0801 36.8041 52.085H33.1991C30.8391 52.085 28.8341 50.575 28.0891 48.475M34.9991 30.415V25M34.9991 57.5V52.085" stroke="#00AACB" stroke-width="4" stroke-linecap="round" stroke-linejoin="round"/>
</svg>

<svg xmlns="http://www.w3.org/2000/svg" width="70" height="70" fill="none" viewBox="0 0 70 70"><path stroke="#00aacb" stroke-linecap="round" stroke-linejoin="round" stroke-width="4" d="M35 67.5c17.5 0 30-6.19 30-19.97 0-14.975-7.5-24.96-22.5-32.45l5.9-7.59a3.29 3.29 0 0 0-2.8-4.99H24.4a3.3 3.3 0 0 0-2.8 4.99l5.9 7.64C12.5 22.67 5 32.655 5 47.63 5 61.31 17.5 67.5 35 67.5"/><path stroke="#00aacb" stroke-linecap="round" stroke-linejoin="round" stroke-width="4" d="M41.914 34.03a5.4 5.4 0 0 0-5.11-3.615h-4.19a4.835 4.835 0 0 0-1.035 9.56l6.385 1.4a5.42 5.42 0 0 1-1.16 10.71H33.2a5.425 5.425 0 0 1-5.11-3.61M35 30.415V25m0 32.5v-5.415"/></svg>
